X:1
T:A tierras agenas
T:A tierras agenas
T:F. de Peñalosa (1470 - 1528)
T:Public Domain - CPDL
T:Public Domain - CPDL
C:F. de Peñalosa (1470 - 1528)
Z:Public Domain - CPDL
%%score [ 1 2 3 ]
L:1/8
Q:1/4=100
M:4/4
K:C
V:1 treble nm="I"
V:2 treble nm="II"
V:3 treble-8 nm="III"
V:1
 G8 | A4 G4 | A4 c4 | B4 c2 d2- | dc c4 B2 | c8 ||S B4 B4 | c4 A4 | B4 G2 A2- | AD G4 ^F2 | %10
w: A|tie\- rras|a\- _|_ _ _|* * ge\- _|nas|¿quién me|tra\- jo|a _ _|_ _ e\- _|
w: ||||||||||
 G8!fine! |: G4 A4 | G2 c4 B2 | c4 A4 | z4 d4 | B4 G4 | A2 c2- cBAG | ^F2 G4 F2 | G8 :| G8 | %20
w: llas?|yo vi\-|vo _ pe\-|nan\- do|con|tris\- tes|por\- _ _ _ _ _|fi\- _ _|as|de|
w: |las no\-|ches * pen\-|san\- do|que|scri\- ba|los _ _ _ _ _|di\- _ _|as||
 G4 A2 A2 | B4 G4 | z2 G2 A4 | B4 c2 d2- | dB c4 B2 | c8 | B4 B4 | c4 A4 | B4 G2 A2- | AD G4 ^F2 | %30
w: la\- gri\- mas|mi\- as|mis car\-|tas van _|_ _ lle\- _|nas|a tie\-|rras a\-|ge\- _ _|_ _ _ _|
w: ||||||||||
 G8!D.S.! || %31
w: nas|
w: |
V:2
 E8 | C4 C4 | C8 | D4 E2 F2- | FE C2 D4 | E8 || D4 G4 | E4 F4 | D4 E2 C2- | CB, G,2 A,4 | B,8 |: %11
w: A|tie\- rras|a\-|_ _ _|* * * ge\-|nas|¿quién me|tra\- jo|a _ _|_ _ _ e\-|llas?|
w: |||||||||||
 E4 F4 | E2 C2 D4 | C4 F4 | z8 | G4 E4 | C4 C4 | D2 G,2 A,4 | B,8 :| G8 | E4 F2 F2 | D4 E4 | %22
w: yo vi\-|vo _ pe\-|nan\- do||con tris\-|tes por\-|fi\- _ _|as|de|la\- gri\- mas|mi\- as|
w: las no\-|ches * pen\-|san\- do||que scri\-|ba los|di\- _ _|as||||
 z2 E2 F4 | D2 G2 E2 F2 | G2 C2 D4 | C8 | D4 G4 | E4 F4 | D4 E2 C2- | CB, G,2 A,4 | B,4 D4 || %31
w: mis car\-|tas _ van _|_ _ lle\-|nas|a tie\-|rras a\-|ge\- _ _|_ _ _ _|nas _|
w: |||||||||
V:3
 C8 | F4 E4 | F4 A4 | G4 E2 D2 | A4 G4 | C8 || G4 G4 | C4 D4 | G4 C2 F2- | FG E2 D4 | G8 |: c4 F4 | %12
w: A|tie\- rras|a _|_ _ _|* ge\-|nas|¿quién me|tra\- jo|a _ _|_ _ _ e\-|llas?|yo vi\-|
w: |||||||||||las no\-|
 c2 A2 G4 | A4 F2 D2 | d4 B4 | G4 c4 | z2 A2- AGFE | D2 E2 D4 | G8 :| G8 | c4 F2 F2 | G4 C4 | %22
w: vo _ pe\-|nan\- _ _|do con|tris\- tes|por _ _ _ _|fi\- _ _|as|de|la\- gri\- mas|mi\- as|
w: ches * pen\-|san\- _ _|do que|scri\- ba|los _ _ _ _|di\- _ _|as||||
 z2 C2 F4 | G4 A2 D2 | G2 E2 F2 G2 | C8 | G4 G4 | C4 D4 | G4 C2 F2- | FG E2 D4 | G8 || %31
w: mis car\-|tas van _|_ _ lle\- _|nas|a tie\-|rras a\-|ge\- _ _|_ _ _ _|nas|
w: |||||||||

